public/book-icon.svg

<svg fill="none" height="24" viewBox="0 0 24 24" width="24" xmlns="http://www.w3.org/2000/svg"><g fill="#3194bd"><path d="m8 1.22461c.42381 0 .77539.35158.77539.77539v3c0 .42381-.35158.77539-.77539.77539s-.77539-.35158-.77539-.77539v-3c0-.42381.35158-.77539.77539-.77539z" stroke="#3194bd" stroke-width=".05"/><path d="m16 1.22461c.4238 0 .7754.35158.7754.77539v3c0 .42381-.3516.77539-.7754.77539s-.7754-.35158-.7754-.77539v-3c0-.42381.3516-.77539.7754-.77539z" stroke="#3194bd" stroke-width=".05"/><path d="m8.5 14.5c-.13 0-.26-.03-.38-.08-.13-.05-.22999-.12-.32999-.21-.18-.19-.29001-.45-.29001-.71s.11001-.52.29001-.71c.1-.09.20999-.16.32999-.21.24-.1.52-.1.76 0 .12.05.22999.12.32999.21.04.05.09.1.12.15.04.06.07002.12.09002.18.03.06.05.12.06.18.01.07.01999.14.01999.2 0 .26-.11001.52-.29001.71-.1.09-.20999.16-.32999.21s-.25.08-.38.08z"/><path d="m12 14.5c-.13 0-.26-.03-.38-.08-.13-.05-.23-.12-.33-.21-.18-.19-.29-.45-.29-.71 0-.06.01-.13.02-.2.01-.06.03-.12.06-.18.02-.06.05-.12.09-.18.04-.05.08-.1.12-.15.37-.37 1.04-.37 1.42 0 .04.05.08.1.12.15.04.06.07.12.09.18.03.06.05.12.06.18.01.07.02.14.02.2 0 .26-.11.52-.29.71-.19.18-.44.29-.71.29z"/><path d="m8.5 18c-.13 0-.26-.03-.38-.08s-.22999-.12-.32999-.21c-.18-.19-.29001-.45-.29001-.71 0-.06.00999-.13.01999-.19.01-.07.03-.13.06-.19.02-.06.05002-.12.09002-.18.03-.05.08-.1.12-.15.1-.09.20999-.16.32999-.21.24-.1.52-.1.76 0 .12.05.22999.12.32999.21.04.05.09.1.12.15.04.06.07002.12.09002.18.03.06.05.12.06.19.01.06.01999.13.01999.19 0 .26-.11001.52-.29001.71-.1.09-.20999.16-.32999.21s-.25.08-.38.08z"/><g stroke="#3194bd" stroke-width=".05"><path d="m20.5 8.31458c.4238 0 .7754.35158.7754.77539 0 .4238-.3516.77539-.7754.77539h-17c-.42381 0-.77539-.35159-.77539-.77539 0-.42381.35158-.77539.77539-.77539z"/><path d="m20.1372 14.4349c.6395-.0609 1.2572.2035 1.8408.7871.3065.3065.6676.7736.7715 1.3457.1042.5743-.0518 1.25-.7715 1.9698l-3.54 3.54c-.2538.2538-.6789.4668-1.0342.5176l-1.3506.1894c-.0794.01-.1515.0206-.2334.0206-.386-.0001-.7526-.1423-1.0176-.4073-.316-.3161-.4577-.7748-.3867-1.2519l.1895-1.3496c.0508-.3554.2638-.7804.5176-1.0342l3.54-3.5401c.4826-.4825.9575-.7363 1.4746-.7871zm.0938 1.5489c-.053.0138-.1136.0428-.1807.0869-.0894.0587-.1887.1428-.293.247l-3.54 3.5401c-.0119.012-.03.0412-.0459.0742-.0078.0162-.0148.0326-.0195.0469-.0049.0147-.0069.0254-.0069.0312v.0039l-.1767 1.2168 1.2177-.1757c.0176-.0049.049-.0186.0811-.0352.0338-.0175.0632-.0359.0752-.0479l3.54-3.54c.1096-.1095.1947-.2039.253-.292.0581-.0879.0892-.1687.0927-.249.0068-.1606-.096-.3333-.3457-.583v-.001c-.0794-.0744-.1752-.1579-.2754-.2226-.1011-.0654-.2041-.1094-.2968-.1094h-.0284z"/><path d="m18.4937 15.5254c.4131-.1134.836.1246.9599.5371l.001.001c.2277.8114.8711 1.455 1.6826 1.6826h-.001c.3879.1067.6207.4945.5547.8828l-.0166.0781c-.1031.3403-.4128.5683-.7539.5684-.0718 0-.1443-.0115-.207-.0322v.0009c-1.3284-.3723-2.3855-1.4294-2.7578-2.7578-.1134-.4131.1246-.836.5371-.9599z"/><path d="m16 2.72461c1.8297 0 3.2746.52655 4.2617 1.51367s1.5137 2.43197 1.5137 4.26172v3.5c0 .4238-.3516.7754-.7754.7754s-.7754-.3516-.7754-.7754v-3.5c0-1.42633-.3463-2.48112-1.0449-3.17969s-1.7534-1.04492-3.1797-1.04492h-8c-1.42633 0-2.48112.34635-3.17969 1.04492s-1.04492 1.75336-1.04492 3.17969v8.5c0 1.4263.34635 2.4811 1.04492 3.1797s1.75336 1.0449 3.17969 1.0449h4c.4238 0 .7754.3516.7754.7754s-.3516.7754-.7754.7754h-4c-1.82975 0-3.2746-.5266-4.26172-1.5137s-1.51367-2.432-1.51367-4.2617v-8.5c0-1.82975.52655-3.2746 1.51367-4.26172s2.43197-1.51367 4.26172-1.51367z"/></g></g></svg>

<svg width="24" height="24" viewBox="0 0 24 24" fill="none" xmlns="http://www.w3.org/2000/svg">
<path d="M8 1.22461C8.42381 1.22461 8.77539 1.57619 8.77539 2V5C8.77539 5.42381 8.42381 5.77539 8 5.77539C7.57619 5.77539 7.22461 5.42381 7.22461 5V2C7.22461 1.57619 7.57619 1.22461 8 1.22461Z" fill="#3194BD" stroke="#3194BD" stroke-width="0.05"/>
<path d="M16 1.22461C16.4238 1.22461 16.7754 1.57619 16.7754 2V5C16.7754 5.42381 16.4238 5.77539 16 5.77539C15.5762 5.77539 15.2246 5.42381 15.2246 5V2C15.2246 1.57619 15.5762 1.22461 16 1.22461Z" fill="#3194BD" stroke="#3194BD" stroke-width="0.05"/>
<path d="M8.5 14.5C8.37 14.5 8.24 14.47 8.12 14.42C7.99 14.37 7.89001 14.3 7.79001 14.21C7.61001 14.02 7.5 13.76 7.5 13.5C7.5 13.24 7.61001 12.98 7.79001 12.79C7.89001 12.7 8 12.63 8.12 12.58C8.36 12.48 8.64 12.48 8.88 12.58C9 12.63 9.10999 12.7 9.20999 12.79C9.24999 12.84 9.29999 12.89 9.32999 12.94C9.36999 13 9.40001 13.06 9.42001 13.12C9.45001 13.18 9.47001 13.24 9.48001 13.3C9.49001 13.37 9.5 13.44 9.5 13.5C9.5 13.76 9.38999 14.02 9.20999 14.21C9.10999 14.3 9 14.37 8.88 14.42C8.76 14.47 8.63 14.5 8.5 14.5Z" fill="#3194BD"/>
<path d="M12 14.5C11.87 14.5 11.74 14.47 11.62 14.42C11.49 14.37 11.39 14.3 11.29 14.21C11.11 14.02 11 13.76 11 13.5C11 13.44 11.01 13.37 11.02 13.3C11.03 13.24 11.05 13.18 11.08 13.12C11.1 13.06 11.13 13 11.17 12.94C11.21 12.89 11.25 12.84 11.29 12.79C11.66 12.42 12.33 12.42 12.71 12.79C12.75 12.84 12.79 12.89 12.83 12.94C12.87 13 12.9 13.06 12.92 13.12C12.95 13.18 12.97 13.24 12.98 13.3C12.99 13.37 13 13.44 13 13.5C13 13.76 12.89 14.02 12.71 14.21C12.52 14.39 12.27 14.5 12 14.5Z" fill="#3194BD"/>
<path d="M8.5 18C8.37 18 8.24 17.97 8.12 17.92C8 17.87 7.89001 17.8 7.79001 17.71C7.61001 17.52 7.5 17.26 7.5 17C7.5 16.94 7.50999 16.87 7.51999 16.81C7.52999 16.74 7.54999 16.68 7.57999 16.62C7.59999 16.56 7.63001 16.5 7.67001 16.44C7.70001 16.39 7.75001 16.34 7.79001 16.29C7.89001 16.2 8 16.13 8.12 16.08C8.36 15.98 8.64 15.98 8.88 16.08C9 16.13 9.10999 16.2 9.20999 16.29C9.24999 16.34 9.29999 16.39 9.32999 16.44C9.36999 16.5 9.40001 16.56 9.42001 16.62C9.45001 16.68 9.47001 16.74 9.48001 16.81C9.49001 16.87 9.5 16.94 9.5 17C9.5 17.26 9.38999 17.52 9.20999 17.71C9.10999 17.8 9 17.87 8.88 17.92C8.76 17.97 8.63 18 8.5 18Z" fill="#3194BD"/>
<path d="M20.5 8.31458C20.9238 8.31458 21.2754 8.66616 21.2754 9.08997C21.2754 9.51377 20.9238 9.86536 20.5 9.86536H3.5C3.07619 9.86536 2.72461 9.51377 2.72461 9.08997C2.72461 8.66616 3.07619 8.31458 3.5 8.31458H20.5Z" fill="#3194BD" stroke="#3194BD" stroke-width="0.05"/>
<path d="M20.1372 14.4349C20.7767 14.374 21.3944 14.6384 21.978 15.222C22.2845 15.5285 22.6456 15.9956 22.7495 16.5677C22.8537 17.142 22.6977 17.8177 21.978 18.5375L18.438 22.0775C18.1842 22.3313 17.7591 22.5443 17.4038 22.5951L16.0532 22.7845C15.9738 22.7945 15.9017 22.8051 15.8198 22.8051C15.4338 22.805 15.0672 22.6628 14.8022 22.3978C14.4862 22.0817 14.3445 21.623 14.4155 21.1459L14.605 19.7963C14.6558 19.4409 14.8688 19.0159 15.1226 18.7621L18.6626 15.222C19.1452 14.7395 19.6201 14.4857 20.1372 14.4349ZM20.231 15.9838C20.178 15.9976 20.1174 16.0266 20.0503 16.0707C19.9609 16.1294 19.8616 16.2135 19.7573 16.3177L16.2173 19.8578C16.2054 19.8698 16.1873 19.899 16.1714 19.932C16.1636 19.9482 16.1566 19.9646 16.1519 19.9789C16.147 19.9936 16.145 20.0043 16.145 20.0101V20.014L15.9683 21.2308L17.186 21.0551C17.2036 21.0502 17.235 21.0365 17.2671 21.0199C17.3009 21.0024 17.3303 20.984 17.3423 20.972L20.8823 17.432C20.9919 17.3225 21.077 17.2281 21.1353 17.14C21.1934 17.0521 21.2245 16.9713 21.228 16.891C21.2348 16.7304 21.132 16.5577 20.8823 16.308V16.307C20.8029 16.2326 20.7071 16.1491 20.6069 16.0844C20.5058 16.019 20.4028 15.975 20.3101 15.975H20.2817L20.231 15.9838Z" fill="#3194BD" stroke="#3194BD" stroke-width="0.05"/>
<path d="M18.4937 15.5254C18.9068 15.412 19.3297 15.65 19.4536 16.0625L19.4546 16.0635C19.6823 16.8749 20.3257 17.5185 21.1372 17.7461H21.1362C21.5241 17.8528 21.7569 18.2406 21.6909 18.6289L21.6743 18.707C21.5712 19.0473 21.2615 19.2753 20.9204 19.2754C20.8486 19.2754 20.7761 19.2639 20.7134 19.2432V19.2441C19.385 18.8718 18.3279 17.8147 17.9556 16.4863C17.8422 16.0732 18.0802 15.6503 18.4927 15.5264L18.4937 15.5254Z" fill="#3194BD" stroke="#3194BD" stroke-width="0.05"/>
<path d="M16 2.72461C17.8297 2.72461 19.2746 3.25116 20.2617 4.23828C21.2488 5.2254 21.7754 6.67025 21.7754 8.5V12C21.7754 12.4238 21.4238 12.7754 21 12.7754C20.5762 12.7754 20.2246 12.4238 20.2246 12V8.5C20.2246 7.07367 19.8783 6.01888 19.1797 5.32031C18.4811 4.62174 17.4263 4.27539 16 4.27539H8C6.57367 4.27539 5.51888 4.62174 4.82031 5.32031C4.12174 6.01888 3.77539 7.07367 3.77539 8.5V17C3.77539 18.4263 4.12174 19.4811 4.82031 20.1797C5.51888 20.8783 6.57367 21.2246 8 21.2246H12C12.4238 21.2246 12.7754 21.5762 12.7754 22C12.7754 22.4238 12.4238 22.7754 12 22.7754H8C6.17025 22.7754 4.7254 22.2488 3.73828 21.2617C2.75116 20.2746 2.22461 18.8297 2.22461 17V8.5C2.22461 6.67025 2.75116 5.2254 3.73828 4.23828C4.7254 3.25116 6.17025 2.72461 8 2.72461H16Z" fill="#3194BD" stroke="#3194BD" stroke-width="0.05"/>
</svg>
